!!!COM: Bach, Johann Sebastian
!!!OTL: Ich dank' dir, Gott, fuer all' Wohltat
!!!ONM: No. 223
!!!OCL: Erk
!!!YOE: Riemenschneider, Albert
!!!OPR: 371 Harmonized Chorales and 69 Chorale Melodies with Figured Bass
!!!OPT: Bach Chorale Harmonizations
**kern	**kern	**kern	**kern
! bass	! tenor	! alto	! soprano
*M4/4	*M4/4	*M4/4	*M4/4
*C:	*C:	*C:	*C:
4C	8E	4c	4g
.	8F	.	.
=1	=1	=1	=1
4BB-	4G	4c	4e
4AA	4A	4c	4f#
4GG;	4D;	4B;	4g;
4BBn	4G	[4d	4g
=2	=2	=2	=2
4C	[4G	8d]	4e
.	.	[8c	.
4GG	8.G]	8c]	4d
.	.	8B	.
.	16F	.	.
4CC;	4E;	4G;	4c;
4C	4E	4G	4c
=3	=3	=3	=3
4BB	4G	4d	4g
8C	4c	[4e	4g
8BB	.	.	.
4AA	4c	8e]	4a
.	.	8f#	.
4GG	4d	[4g	4b
=4	=4	=4	=4
4E	4c	8g]	4cc
.	.	8f#	.
4D	4d	[4g	4b
4C	4e	4g_	4a
4D	8.d	8g]	4a
.	.	8f#	.
.	16c	.	.
=5	=5	=5	=5
2GG;	2B;	2d;	2g;
4r	4r	4r	4r
4E	4c	[4e	4g
=6	=6	=6	=6
4F	4c	8e]	4a
.	.	[8d	.
4GG#	4B	8d]	4b
.	.	8e	.
4AA;	4A;	4e;	4cc;
4C	4E	[4c	4g
=7	=7	=7	=7
[4F	4F	8c]	4a
.	.	8B	.
8F]	4G	8c	4g
8E	.	8c#	.
8D	4A	8d	4f
8E	.	8c#	.
8F	4A	[4d	4f
8D	.	.	.
=8	=8	=8	=8
2A;	2A;	4d]	2e;
.	.	4c#;	.
4r	4r	4r	4r
4E	4c	[4g	4ccn
=9	=9	=9	=9
8F	4c	8g]	4a
8E	.	16f	.
.	.	16e	.
4D	4d	4f	4b
4C;	4G;	4e;	4cc;
[4D	8d	4f	4a
.	8c	.	.
=10	=10	=10	=10
8D]	4B-	[4e	4g
8C#	.	.	.
4D	4A	8e]	4f
.	.	[8d	.
4AA;	4A;	8d]	4e;
.	.	8c#;	.
4BBn	[4G	4d	4g
=11	=11	=11	=11
4C#	8G]	4e	4e
.	[8A	.	.
4D#	8A]	4B	4f#
.	16G	.	.
.	16F#	.	.
4E;	4E;	4B;	4g;
8E	8e	8g	4cc
8F#	8d	[8a	.
=12	=12	=12	=12
4G	4d	8a]	4b
.	.	[8g	.
4D	8.d	8g]	4a
.	.	8f#	.
.	16c	.	.
4GG;	4B;	4d;	4g;
4BB	4G	4d	4g
=13	=13	=13	=13
8C	4G	4c	8e
8D	.	.	8f
8E	8c	4c	4g
8C	8B-	.	.
4F	8.A	8c	4a
.	.	[8f	.
.	16Bn	.	.
[4C	8.c	8f]	4g
.	.	8e	.
.	16B-	.	.
=14	=14	=14	=14
8C]	8A	[4d	4f
8BB	8G	.	.
4C	4G	8d]	4e
.	.	[8c	.
4FF	8A	8c]	4d
.	8D	16B	.
.	.	16A	.
4GG	8G	4B	4d
.	8F	.	.
=15	=15	=15	=15
1CC;	1E;	1G;	1c;
==	==	==	==
*-	*-	*-	*-
!!!CDT: 1685/3//-1750/7/28
!!!OCY: Deutschland
!!!AGN: chorale
!!!AST: Baroque
!!!AIN: vox
!!!YOY: 1941
!!!PPP: New York; London
!!!PPR: G. Schirmer
!!!ENC: David Huron
!!!EED: David Huron
!!!YEN: United States of America
!!!YER: 1992
!!!YEC: Copyright 1992 David Huron
!!!YEM: Rights to all derivative electronic formats reserved.
!!!YER: March 20, 1996
!!!AMT: simple quadruple
!!!EEV: 1.1
